X:1
T:6. Hail Columbia
T:Phillip Phile 
T:Joseph Hopkinson
T:6. Hail Columbia
T:Public Domain (1917)
T:Public Domain (1917)
C:Phillip Phile
Z:Joseph Hopkinson
Z:Public Domain (1917)
L:1/8
M:4/4
K:G
V:1 treble nm="Piano" snm="Pno."
V:1
 x7"^Solo, or all Sopranos" G | (G3 G) B3 A | G2 D2 G2 z G | (B3 B) d3 c | B2 G2 B2 z D | %5
w: |Hail, Col- um- bia,|happ- py Land! Hail,|ye her oes, heav'n|_ born band! Who|
 G2 (G>G) G2 B2 | A>G A>B (G2 D2) | B2 (B>B) B2 d2 | c>B c>d B2 G2 | A2 A2 A2 d2 | ^c2 B2 (A2 G2) | %11
w: fought and _ bled in|Free _ dom's cause _ Who|fought and _ bled in|Free * dom's * cause, And|when the storm of|war was gone En-|
 (3(FGA) (3(BAG) F2 E2 | D2 D2 D2 z D | d3 d c2 B2 | c>d e>c A2 z A | A2 A2 B2 B2 | A2 A2 (A3 B) | %17
w: joyed _ _ the _ _ peace your|val- or won. Let|in- de- pend- ence|be * our _ boast, *|Ev- er mind- ful|what it cost; _|
 c3 c B2 A2 | B>c d>B G2 z G | G2 G2 AGAB | G2 G2 G2"^Chorus" z2 | G3 G G2 B2 | A>G A>B G4 | %23
w: Ev- er grate- ful|for _ the _ prize, *|Let its al- * tar _|reach the skies.|Firm, u- nit- ted,|let _ us _ be,|
"^3.  Sound, sound the trump of fame!Let Washington's great name Ring thro' the world with loud applause!Ring thro' the world with loud applause!Let evr'y  climb to Freedom dear, Listen with a joyful ear;With equal skill, with steady pow'r,He governs in the fearful hourOf horrid war of guides with easeThe happier times of honest peaceChorus" B3 B B2 d2 | %24
w: Ral- lying round our|
"^2.  Immortal patriots, rise once more!Defend your rights, defend your shore;Let no rude foe, which impious hand,Let no rude foe with impious hand,Invade the shrine where sacred lies,Of toil and blood the well-earned prize.While off'ring peace, sincere and just,In heav'n we place a manly trust,That truth and justice shall prevail,And ev'ry scheme of bondage fail.Chorus" c>B c>d B4 | %25
w: lib- * er- * ty!|
"^4.  Behold the chief, who now commands,Once more to serve his country stands;The rock on which the storm will beat!The rock on which the storm will beat!But armed in virtue firm and true,His hopes are fixed on heav'n and you.When hope was sinking in dismay,When gloom obscured Columbia's day,His steady mind, from changes free,Resolved on death or liberty.Chorus" E2 E2 c2 A>F | %26
w: As a band of _|
 G>A B>c (d2 c2) | (3(BAB) (3(cBA) G2 F2 | G3 G G2 x2 |] %29
w: broth- * ers _ joined, _|Peace _ _ and _ _ safe- ty|we shall find.|

